IconSet/eva icons.iconjar/icons/file-outline.svg

<svg xmlns="http://www.w3.org/2000/svg" viewBox="0 0 24 24"><g data-name="Layer 2"><g data-name="file"><rect width="24" height="24" opacity="0"/><path d="M19.74 8.33l-5.44-6a1 1 0 0 0-.74-.33h-7A2.53 2.53 0 0 0 4 4.5v15A2.53 2.53 0 0 0 6.56 22h10.88A2.53 2.53 0 0 0 20 19.5V9a1 1 0 0 0-.26-.67zM17.65 9h-3.94a.79.79 0 0 1-.71-.85V4h.11zm-.21 11H6.56a.53.53 0 0 1-.56-.5v-15a.53.53 0 0 1 .56-.5H11v4.15A2.79 2.79 0 0 0 13.71 11H18v8.5a.53.53 0 0 1-.56.5z"/></g></g></svg>

<svg xmlns="http://www.w3.org/2000/svg" viewBox="0 0 24 24"><defs><style>.cls-1{fill:#fff;opacity:0;}.cls-2{fill:#231f20;}</style></defs><title>file</title><g id="Layer_2" data-name="Layer 2"><g id="file"><g id="file-2" data-name="file"><rect class="cls-1" width="24" height="24"/><path class="cls-2" d="M19.74,8.33l-5.44-6A1,1,0,0,0,13.56,2h-7A2.53,2.53,0,0,0,4,4.5v15A2.53,2.53,0,0,0,6.56,22H17.44A2.53,2.53,0,0,0,20,19.5V9A1,1,0,0,0,19.74,8.33ZM17.65,9H13.71A.79.79,0,0,1,13,8.15V4h.11Zm-.21,11H6.56A.53.53,0,0,1,6,19.5V4.5A.53.53,0,0,1,6.56,4H11V8.15A2.79,2.79,0,0,0,13.71,11H18v8.5A.53.53,0,0,1,17.44,20Z"/></g></g></g></svg>
